SVG_Azure_Grouped/AI/Remote Rendering Account.svg

<?xml version="1.0" encoding="UTF-8" standalone="no"?>
<!-- Generated by Microsoft Visio, SVG Export Remote Rendering Account.svg Page-1 -->

<svg
   xmlns:dc="http://purl.org/dc/elements/1.1/"
   xmlns:cc="http://creativecommons.org/ns#"
   xmlns:rdf="http://www.w3.org/1999/02/22-rdf-syntax-ns#"
   xmlns:svg="http://www.w3.org/2000/svg"
   xmlns="http://www.w3.org/2000/svg"
   xmlns:sodipodi="http://sodipodi.sourceforge.net/DTD/sodipodi-0.dtd"
   xmlns:inkscape="http://www.inkscape.org/namespaces/inkscape"
   width="0.7873624in"
   height="0.55149549in"
   viewBox="0 0 56.690001 39.707528"
   xml:space="preserve"
   class="st7"
   version="1.1"
   id="svg73"
   sodipodi:docname="Remote Rendering Account.svg"
   style="font-size:12px;overflow:visible;color-interpolation-filters:sRGB;fill:none;fill-rule:evenodd;stroke-linecap:square;stroke-miterlimit:3"
   inkscape:version="0.92.5 (2060ec1f9f, 2020-04-08)"><metadata
   id="metadata77"><rdf:RDF><cc:Work
       rdf:about=""><dc:format>image/svg+xml</dc:format><dc:type
         rdf:resource="http://purl.org/dc/dcmitype/StillImage" /></cc:Work></rdf:RDF></metadata><sodipodi:namedview
   pagecolor="#ffffff"
   bordercolor="#666666"
   borderopacity="1"
   objecttolerance="10"
   gridtolerance="10"
   guidetolerance="10"
   inkscape:pageopacity="0"
   inkscape:pageshadow="2"
   inkscape:window-width="640"
   inkscape:window-height="480"
   id="namedview75"
   showgrid="false"
   inkscape:zoom="1.6433259"
   inkscape:cx="37.795396"
   inkscape:cy="26.466913"
   inkscape:window-x="0"
   inkscape:window-y="0"
   inkscape:window-maximized="0"
   inkscape:current-layer="svg73" />
	<style
   type="text/css"
   id="style2">
	<![CDATA[
		.st1 {fill:url(#grad0-6);stroke:none;stroke-linecap:butt;stroke-width:34}
		.st2 {fill:url(#grad0-10);stroke:none;stroke-linecap:butt;stroke-width:34}
		.st3 {fill:#ffffff;stroke:none;stroke-linecap:butt;stroke-width:34}
		.st4 {fill:#9cebff;fill-opacity:0.8;stroke:none;stroke-linecap:butt;stroke-width:34}
		.st5 {fill:#9cebff;fill-opacity:0.85;stroke:none;stroke-linecap:butt;stroke-width:34}
		.st6 {fill:#9cebff;stroke:none;stroke-linecap:butt;stroke-width:34}
		.st7 {fill:none;fill-rule:evenodd;font-size:12px;overflow:visible;stroke-linecap:square;stroke-miterlimit:3}
	]]>
	</style>

	<defs
   id="Patterns_And_Gradients">
		<linearGradient
   id="grad0-6"
   x1="0"
   y1="81.264975"
   x2="47.444963"
   y2="81.264975"
   gradientTransform="scale(1.1948581,0.83691944)"
   gradientUnits="userSpaceOnUse">
			<stop
   offset="0"
   stop-color="#0078d4"
   stop-opacity="1"
   id="stop4" />
			<stop
   offset="0.155"
   stop-color="#1380da"
   stop-opacity="1"
   id="stop6" />
			<stop
   offset="0.53"
   stop-color="#3c91e5"
   stop-opacity="1"
   id="stop8" />
			<stop
   offset="0.82"
   stop-color="#559cec"
   stop-opacity="1"
   id="stop10" />
			<stop
   offset="1"
   stop-color="#5ea0ef"
   stop-opacity="1"
   id="stop12" />
		</linearGradient>
		<linearGradient
   id="grad0-10"
   x1="-1.9909831e-15"
   y1="76.130988"
   x2="19.967966"
   y2="76.130988"
   gradientTransform="scale(0.89220086,1.1208238)"
   gradientUnits="userSpaceOnUse">
			<stop
   offset="0"
   stop-color="#c3f1ff"
   stop-opacity="1"
   id="stop15" />
			<stop
   offset="0.105"
   stop-color="#beeffe"
   stop-opacity="1"
   id="stop17" />
			<stop
   offset="0.765"
   stop-color="#32bedd"
   stop-opacity="1"
   id="stop19" />
		</linearGradient>
	</defs>
	<g
   id="g71"
   transform="translate(-34,-33.996654)">
		<title
   id="title23">Page-1</title>
		<g
   id="group18321-1"
   transform="translate(34,-34.0157)">
			<title
   id="title25">Remote Rendering Account.18321</title>
			<g
   id="group18322-2">
				<title
   id="title27">Sheet.18322</title>
				<g
   id="shape18323-3">
					<title
   id="title29">Sheet.18323</title>
					<path
   d="M 56.69,95.28 A 12.7407,12.5848 -180 0 0 45.64,83.18 16.0529,15.8563 -180 0 0 29.1,68.02 16.4681,16.2665 -180 0 0 13.36,78.62 15.2001,15.014 -180 0 0 0,93.07 15.4269,15.238 -180 0 0 15.97,107.71 c 0.47,0 0.94,-0.02 1.41,-0.06 h 25.85 a 2.52004,2.48919 -180 0 0 0.68,-0.1 12.8909,12.733 -180 0 0 12.78,-12.27 z"
   class="st1"
   id="path31"
   inkscape:connector-curvature="0"
   style="fill:url(#grad0-6);stroke:none;stroke-width:34;stroke-linecap:butt" />
				</g>
				<g
   id="shape18324-7"
   transform="translate(25.5965,-10.3984)">
					<title
   id="title34">Sheet.18324</title>
					<path
   d="M 0.74,100.09 8.09,85.83 a 0.939026,0.92753 0 0 1 1.66725,0 L 17.07,99.46 a 5.01772,4.95629 0 0 1 0.74,2.83 c 0,3 -3.99,5.42 -8.91,5.42 -4.91,0 -8.9,-2.42 -8.9,-5.42 a 3.76569,3.71959 0 0 1 0.74,-2.2 z"
   class="st2"
   id="path36"
   inkscape:connector-curvature="0"
   style="fill:url(#grad0-10);stroke:none;stroke-width:34;stroke-linecap:butt" />
				</g>
				<g
   id="shape18325-11"
   transform="translate(25.5869,-10.4237)">
					<title
   id="title39">Sheet.18325</title>
					<path
   d="m 0.75,100.24 c -0.6,1.2 -0.75,1.4 -0.75,2.18 a 3.77207,3.72589 -180 0 0 0.04,0.46 v 0.17 h 0.04 c 0.45,2.32 3.3,4.19 6.99,4.66 v -0.47 c -3.51,-0.46 -6.21,-2.21 -6.55,-4.37 0.15,-2.17 2.81,-4.5 6.55,-5.02 V 97.58 L 7,97.62 6.68,97.44 a 9.36791,9.25322 -180 0 0 -5.39,2.78 l 0.05,-0.1 2.28,-4.42 -0.41,-0.23 -2.46,4.79 z"
   class="st3"
   id="path41"
   inkscape:connector-curvature="0"
   style="fill:#ffffff;stroke:none;stroke-width:34;stroke-linecap:butt" />
				</g>
				<g
   id="shape18326-13"
   transform="translate(22.971,-4.11394)">
					<title
   id="title44">Sheet.18326</title>
					<path
   d="m 9.67,91.09 v 11.06 L 0,107.71 V 96.63 Z"
   class="st4"
   id="path46"
   inkscape:connector-curvature="0"
   style="fill:#9cebff;fill-opacity:0.8;stroke:none;stroke-width:34;stroke-linecap:butt" />
				</g>
				<g
   id="shape18327-15"
   transform="translate(13.2965,-15.2001)">
					<title
   id="title49">Sheet.18327</title>
					<path
   d="M 19.35,102.16 9.67,107.71 0,102.15 9.67,96.6 Z"
   class="st5"
   id="path51"
   inkscape:connector-curvature="0"
   style="fill:#9cebff;fill-opacity:0.85;stroke:none;stroke-width:34;stroke-linecap:butt" />
				</g>
				<g
   id="shape18328-17"
   transform="translate(13.2965,-4.12972)">
					<title
   id="title54">Sheet.18328</title>
					<path
   d="m 9.67,96.65 v 11.06 L 0,102.15 V 91.09 Z"
   class="st6"
   id="path56"
   inkscape:connector-curvature="0"
   style="fill:#9cebff;stroke:none;stroke-width:34;stroke-linecap:butt" />
				</g>
				<g
   id="shape18329-19"
   transform="translate(13.0697,-3.84578)">
					<title
   id="title59">Sheet.18329</title>
					<path
   d="M 9.9,107.71 0,102.03 V 90.69 l 9.9,-5.67 9.9,5.67 v 11.33 z m -9.44,-5.96 9.44,5.42 9.44,-5.42 V 90.96 L 9.9,85.54 0.46,90.96 Z"
   class="st3"
   id="path61"
   inkscape:connector-curvature="0"
   style="fill:#ffffff;stroke:none;stroke-width:34;stroke-linecap:butt" />
				</g>
				<g
   id="shape18330-21"
   transform="translate(28.7968,-10.4237)">
					<title
   id="title64">Sheet.18330</title>
					<path
   d="M 14.6,102.29 A 5.01772,4.95629 -180 0 0 13.86,99.46 L 6.54,85.83 a 0.939026,0.92753 -180 0 0 -1.66725,0 L 0,95.33 0.41,95.56 5.3,86.06 a 0.456737,0.451146 0 0 1 0.41841,-0.255544 0.459931,0.4543 0 0 1 0.415216,0.246079 L 13.45,99.68 v 0.04 a 3.87748,3.83001 0 0 1 0.57,1.46 10.5145,10.3858 -180 0 0 -8.62,-4.02 11.2364,11.0988 -180 0 0 -1.94,0.16 l 0.32,0.18 0.07,-0.04 v 0.27 a 11.2332,11.0957 0 0 1 1.56,-0.11 c 4.71,0 8.51,2.77 8.68,5.14 -0.4,2.53 -4.01,4.48 -8.4,4.48 a 13.8458,13.6763 0 0 1 -1.84,-0.12 v 0.47 a 14.4942,14.3168 -180 0 0 1.84,0.12 c 4.57,0 8.33,-2.09 8.84,-4.78 h 0.05 c 0,-0.05 0,-0.11 -0.02,-0.16 a 3.46545,3.42303 -180 0 0 0.04,-0.48 z"
   class="st3"
   id="path66"
   inkscape:connector-curvature="0"
   style="fill:#ffffff;stroke:none;stroke-width:34;stroke-linecap:butt" />
				</g>
			</g>
		</g>
	</g>
</svg>

<?xml version="1.0" encoding="UTF-8" standalone="no"?>
<!DOCTYPE svg PUBLIC "-//W3C//DTD SVG 1.1//EN" "http://www.w3.org/Graphics/SVG/1.1/DTD/svg11.dtd">
<!-- Generated by Microsoft Visio, SVG Export Remote Rendering Account.svg Page-1 -->
<svg xmlns="http://www.w3.org/2000/svg" xmlns:xlink="http://www.w3.org/1999/xlink" xmlns:ev="http://www.w3.org/2001/xml-events"
		width="1.73185in" height="1.49595in" viewBox="0 0 124.693 107.708" xml:space="preserve" color-interpolation-filters="sRGB"
		class="st7">
	<style type="text/css">
	<![CDATA[
		.st1 {fill:url(#grad0-6);stroke:none;stroke-linecap:butt;stroke-width:34}
		.st2 {fill:url(#grad0-10);stroke:none;stroke-linecap:butt;stroke-width:34}
		.st3 {fill:#ffffff;stroke:none;stroke-linecap:butt;stroke-width:34}
		.st4 {fill:#9cebff;fill-opacity:0.8;stroke:none;stroke-linecap:butt;stroke-width:34}
		.st5 {fill:#9cebff;fill-opacity:0.85;stroke:none;stroke-linecap:butt;stroke-width:34}
		.st6 {fill:#9cebff;stroke:none;stroke-linecap:butt;stroke-width:34}
		.st7 {fill:none;fill-rule:evenodd;font-size:12px;overflow:visible;stroke-linecap:square;stroke-miterlimit:3}
	]]>
	</style>

	<defs id="Patterns_And_Gradients">
		<linearGradient id="grad0-6" x1="0" y1="0" x2="1" y2="0" gradientTransform="rotate(-90 0.5 0.5)">
			<stop offset="0" stop-color="#0078d4" stop-opacity="1"/>
			<stop offset="0.155" stop-color="#1380da" stop-opacity="1"/>
			<stop offset="0.53" stop-color="#3c91e5" stop-opacity="1"/>
			<stop offset="0.82" stop-color="#559cec" stop-opacity="1"/>
			<stop offset="1" stop-color="#5ea0ef" stop-opacity="1"/>
		</linearGradient>
		<linearGradient id="grad0-10" x1="0" y1="0" x2="1" y2="0" gradientTransform="rotate(90 0.5 0.5)">
			<stop offset="0" stop-color="#c3f1ff" stop-opacity="1"/>
			<stop offset="0.105" stop-color="#beeffe" stop-opacity="1"/>
			<stop offset="0.765" stop-color="#32bedd" stop-opacity="1"/>
		</linearGradient>
	</defs>
	<g>
		<title>Page-1</title>
		<g id="group17891-1" transform="translate(34,-34.0157)">
			<title>Remote Rendering Account.17891</title>
			<g id="group17892-2">
				<title>Sheet.17892</title>
				<g id="shape17893-3">
					<title>Sheet.17893</title>
					<path d="M56.69 95.28 A12.7407 12.5848 -180 0 0 45.64 83.18 A16.0529 15.8563 -180 0 0 29.1 68.02 A16.4681 16.2665
								 -180 0 0 13.36 78.62 A15.2001 15.014 -180 0 0 0 93.07 A15.4269 15.238 -180 0 0 15.97 107.71 C16.44
								 107.71 16.91 107.69 17.38 107.65 L43.23 107.65 A2.52004 2.48919 -180 0 0 43.91 107.55 A12.8909 12.733
								 -180 0 0 56.69 95.28 Z" class="st1"/>
				</g>
				<g id="shape17894-7" transform="translate(25.5965,-10.3984)">
					<title>Sheet.17894</title>
					<path d="M0.74 100.09 L8.09 85.83 a0.939026 0.92753 0 0 1 1.66725 0 L17.07 99.46 A5.01772 4.95629 0 0 1 17.81
								 102.29 C17.81 105.29 13.82 107.71 8.9 107.71 C3.99 107.71 0 105.29 0 102.29 A3.76569 3.71959 0 0
								 1 0.74 100.09 Z" class="st2"/>
				</g>
				<g id="shape17895-11" transform="translate(25.5869,-10.4237)">
					<title>Sheet.17895</title>
					<path d="M0.75 100.24 C0.15 101.44 0 101.64 0 102.42 A3.77207 3.72589 -180 0 0 0.04 102.88 L0.04 103.05 L0.08
								 103.05 C0.53 105.37 3.38 107.24 7.07 107.71 L7.07 107.24 C3.56 106.78 0.86 105.03 0.52 102.87 C0.67
								 100.7 3.33 98.37 7.07 97.85 L7.07 97.58 L7 97.62 L6.68 97.44 A9.36791 9.25322 -180 0 0 1.29 100.22
								 L1.34 100.12 L3.62 95.7 L3.21 95.47 L0.75 100.26 L0.75 100.24 Z" class="st3"/>
				</g>
				<g id="shape17896-13" transform="translate(22.971,-4.11394)">
					<title>Sheet.17896</title>
					<path d="M9.67 91.09 L9.67 102.15 L0 107.71 L0 96.63 L9.67 91.09 Z" class="st4"/>
				</g>
				<g id="shape17897-15" transform="translate(13.2965,-15.2001)">
					<title>Sheet.17897</title>
					<path d="M19.35 102.16 L9.67 107.71 L0 102.15 L9.67 96.6 L19.35 102.16 Z" class="st5"/>
				</g>
				<g id="shape17898-17" transform="translate(13.2965,-4.12972)">
					<title>Sheet.17898</title>
					<path d="M9.67 96.65 L9.67 107.71 L0 102.15 L0 91.09 L9.67 96.65 Z" class="st6"/>
				</g>
				<g id="shape17899-19" transform="translate(13.0697,-3.84578)">
					<title>Sheet.17899</title>
					<path d="M9.9 107.71 L0 102.03 L0 90.69 L9.9 85.02 L19.8 90.69 L19.8 102.02 L9.9 107.71 ZM0.46 101.75 L9.9 107.17
								 L19.34 101.75 L19.34 90.96 L9.9 85.54 L0.46 90.96 L0.46 101.75 Z" class="st3"/>
				</g>
				<g id="shape17900-21" transform="translate(28.7968,-10.4237)">
					<title>Sheet.17900</title>
					<path d="M14.6 102.29 A5.01772 4.95629 -180 0 0 13.86 99.46 L6.54 85.83 a0.939026 0.92753 -180 0 0 -1.66725 -1.42109E-14
								 L0 95.33 L0.41 95.56 L5.3 86.06 a0.456737 0.451146 0 0 1 0.41841 -0.255544 a0.459931 0.4543 0 0
								 1 0.415216 0.246079 L13.45 99.68 L13.45 99.72 A3.87748 3.83001 0 0 1 14.02 101.18 A10.5145 10.3858
								 -180 0 0 5.4 97.16 A11.2364 11.0988 -180 0 0 3.46 97.32 L3.78 97.5 L3.85 97.46 L3.85 97.73 A11.2332
								 11.0957 0 0 1 5.41 97.62 C10.12 97.62 13.92 100.39 14.09 102.76 C13.69 105.29 10.08 107.24 5.69
								 107.24 A13.8458 13.6763 0 0 1 3.85 107.12 L3.85 107.59 A14.4942 14.3168 -180 0 0 5.69 107.71 C10.26
								 107.71 14.02 105.62 14.53 102.93 L14.58 102.93 C14.58 102.88 14.58 102.82 14.56 102.77 A3.46545
								 3.42303 -180 0 0 14.6 102.29 Z" class="st3"/>
				</g>
			</g>
		</g>
	</g>
</svg>
